!!!!SEGMENT: pl-wnifc--13846--001_anonim--piesni-polskie-i-ruskie-ludu-galicyjskiego-1-korowajowe-tisto.krn
!!!cenid: 18xx:3223
!!!COM: Anonim
!!!COM-rismid: pe30004985
!!!CDT:
!!!CNT:
!!!GTL: Pieśni polskie i ruskie ludu galicyjskiego
!!!OTL: 1. Korowajowe tisto
!!!PDT: 1833
!!!AGN:
!!!SMS-siglum: PL-Wnifc
!!!SMS-shelfmark: 13846
!!!SMS-shelfwork: 001 G
!!!NIFC-rismid: 1001036716
!!!URL-scan: http://repozytorium.nifc.pl/skany/pl-wnifc-nut--13846
!!!ONB-nifc:
!!!AIN: 1 piano 1 vox
!!!key: D
!!!OMD: Moderato.
**kern	**kern	**dynam	**kern	**text
*part2	*part2	*part2	*part1	*part1
*staff3	*staff2	*	*staff1	*staff1
*I"FORTEPIAN.	*I"FORTEPIAN.	*	*I"GŁOS.	*
*Ipiano	*Ipiano	*	*Ivox	*
*ICklav	*ICklav	*	*ICvox	*
*IGacmp	*IGacmp	*	*IGsolo	*
*clefF4	*clefG2	*	*clefG2	*
*k[f#c#]	*k[f#c#]	*	*k[f#c#]	*
*D:	*D:	*	*D:	*
*M3/8	*M3/8	*	*M3/8	*
=1-	=1-	=1-	=1-	=1-
!	!LO:TX:a:B:t=Moderato.	!	!	!
*^	*^	*	*	*
*tremolo	*	*	*	*	*	*
!	!	!	!	!LO:DY:b=2:rj:t=for.	!LO:TX:a:t=A.b.1. \n☼	!
(<16AA/LL	(<4.DD\	8a/L	8a\L	f	8a/	Ko-
16D\ 16AA/	.	.	.	.	.	.
16AA/	.	8dd/	8a\	.	8dd\	-ro-
16D/ 16AA/	.	.	.	.	.	.
16AA/	.	(<16ee/L	8a\J	.	(16ee\LL	-wa-
16D/) 16AA/)JJ	.	16ff#/JJ)	.	.	16ff#\JJ)	.
=2	=2	=2	=2	=2	=2	=2
(<16AA/LL	4.DD\	(<16gg/LL	8a\	.	(16gg\LL	-jo-
.	.	.	.	>	.	.
16D/	.	16ff#/JJ)	.	]	16ff#\JJ)	.
16AA/	.	8.ee/L	4a\	.	8.ee\L	-we
16D/	.	.	.	.	.	.
16AA/	.	.	.	.	.	.
16D/)JJ	.	16cc#/Jk	.	.	16cc#\Jk	.
!!LO:LB:g=original
=3	=3	=3	=3	=3	=3	=3
(<16AA/LL	4.DD\	4.dd/	4.a\^	.	4.dd\	ti-
16D/	.	.	.	.	.	.
16AA/	.	.	.	.	.	.
16D/	.	.	.	.	.	.
16AA/	.	.	.	.	.	.
16D/)JJ	.	.	.	.	.	.
*	*	*v	*v	*	*	*
=4	=4	=4	=4	=4	=4
(<16AA/LL	4.DD\	4.a/^	.	4.a/	-sto
16D/	.	.	.	.	.
16AA/	.	.	.	.	.
16D/	.	.	.	.	.
16AA/	.	.	.	.	.
16D/)JJ	.	.	.	.	.
=5	=5	=5	=5	=5	=5
(<16AA/LL	4.DD\	8gg\ 8a\^<	.	8gg\	ko-
16D/	.	.	.	.	.
16AA/	.	8gg\ 8a\^<	.	8gg\	-ro-
16D/	.	.	.	.	.
16AA/	.	8gg\ 8a\^<	.	8gg\	-wa-
16D/)JJ	.	.	.	.	.
=6	=6	=6	=6	=6	=6
(<16AA/LL	4.DD\	(16gg\LL 16a\^<	.	(16gg\LL	-jo-
16D/	.	16ff#\JJ)	.	16ff#\JJ)	.
16AA/	.	8.ee\L [8.a\	.	(>8.ee\L	-we
16D/	.	.	.	.	.
16AA/	.	.	.	.	.
16D/)JJ	.	16dd\Jk 16a\]	.	16dd\Jk)	.
!!LO:LB:g=original
=7	=7	=7	=7	=7	=7
*	*	*^	*	*	*
(<16AA/LL	4.DD\	8ee/	8a\	.	8ee\	ti-
16D/	.	.	.	>	.	.
16AA/	.	4gg/	4a\	]	4gg\	-sto
16D/	.	.	.	.	.	.
16AA/	.	.	.	.	.	.
16D/)JJ	.	.	.	.	.	.
*	*	*v	*v	*	*	*
=8	=8	=8	=8	=8	=8
(<16AA/LL	4.DD\	8gg\L 8a\	.	8gg\	ne
16D/	.	.	.	.	.
16AA/	.	8gg\ 8a\	.	8gg\	zmi-
16D/	.	.	.	.	.
16AA/	.	8ff#\J 8a\	.	8ff#\	-sti-
16D/)JJ	.	.	.	.	.
=9	=9	=9	=9	=9	=9
(<16AA/LL	4.DD\	(16ee\LL 16a\	.	(16ee\LL	-ło
16D/	.	16cc#\JJ)	.	16cc#\JJ)	.
16AA/	.	4dd\ 4a\^<	.	4dd\	sia
16D/	.	.	.	.	.
16AA/	.	.	.	.	.
16D/)JJ	.	.	.	.	.
=10	=10	=10	=10	=10	=10
(<16AA/LL	4.DD\	8ee\L 8a\	.	(8ee\	wmi-
16D/	.	.	>	.	.
16AA/	.	8.gg\ 8.a\	.	8.gg\L)	-sto
16D/	.	.	]	.	.
16AA/	.	.	.	.	.
16D/)JJ	.	16ee\Jk 16a\	.	16ee\'Jk	.
!!LO:LB:g=original
=11	=11	=11	=11	=11	=11
(<16AA/LL	4.DD\	(16gg\LL [>16a\	>	(16gg\LL	ne
16D/	.	16ff#\JJ) 16a\]	]	16ff#\JJ)	.
16AA/	.	8ee\ 8a\	.	8ee\	zmi-
16D/	.	.	>	.	.
16AA/	.	(16gg\LL 16a\	]	(16gg\LL	-sti-
16D/)JJ	.	16ff#\JJ 16a\)	.	16ff#\JJ)	.
=12	=12	=12	=12	=12	=12
(<16AA/LL	4.DD\	(16ee\LL [>16a\	>	(16ee\LL	-ło
16D/	.	16cc#\JJ) 16a\]	]	16cc#\JJ)	.
16AA/	.	4dd\ 4a\	>	4dd\	sia
16D/	.	.	]	.	.
16AA/	.	.	.	.	.
16D/)JJ	.	.	.	.	.
=13	=13	=13	=13	=13	=13
*	*	*^	*	*	*
(<16AA/LL	4.DD\	[<4.dd/	(4.g\	]	[<4.dd\	wmi-
16D/	.	.	.	.	.	.
16AA/	.	.	.	.	.	.
16D/	.	.	.	.	.	.
16AA/	.	.	.	.	.	.
(<[<16D/JJ	.	.	.	.	.	.
*Xtremolo	*	*	*	*	*	*
=14	=14	=14	=14	=14	=14	=14
4D/])	4AA\ 4DD\	4dd/]	4f#\)	.	4dd\]	-sto.
!LO:TX:b:i:t=☼ Na tę notę śpiéwają się wszystkie pieśni wéselne z cyrkułów \n Żółkiewskiego i Złoczowskiego tę samę miarę mające \nA.	!	!	!	!	!	!
8r	8ryy	8r	8ryy	.	8r	.
*v	*v	*	*	*	*	*
*	*v	*v	*	*	*
==	==	==	==	==
*-	*-	*-	*-	*-
!!!system-decoration: s1{(s2,s3)}
!!!RDF**kern: > = above
!!!RDF**kern: < = below
!!!ENC: Emilia Ziętek
!!!ENC: Marta Lawrence
!!!END: 2021-11-09
